X:1     %Music
T:The Quaker's Wife
B:Singing Together, Autumn 1969, BBC Publications
F:http://www.folkinfo.org/songs
M:6/8     %Meter
L:1/8     %
K:G
G |GAB D2 D |c2 B A2 A |GAB D2 D | E3 G2
w:The Qua-*ker's wife got up to bake With all_ her child-ren round her. 
 G |GAB D2 D |c2 B A2 A |GAB D2 D | E3 G2 
w:She gave_ them each a slice of cake, And there_ the Ba-ker found her. 
G |G2 B d2 B |e2 c d2 B |G2 B d2 B | e3 d2
w:He chased her up and down the town, As fast as he could make her
 d/d/ |eec A2 c |d2 B G2 G |GAB D2 D | E3 G2  |]
w: And_ mer-ri-ly danced the Qua-ker's wife, And mer-ri-ly danced the Qua-ker. 
     